!!!OTL: Taiyang chushangang
!!!ARE: Asia, China,ÿGuizhou Zunyi
!! II, 111
!!!SCT: C1869
!!!YEM: Copyright 1995, estate of Helmut Schaffrath.
**kern
*ICvox
*Ivox
!! Mixed meters:  2/4; 3/4
*M2/4
*k[b-]
*F:
{8dd
8dd
16dd
16ee
8cc
=1
*M3/4
4dd
8cc
8cc
8b-
8g
=2
*M2/4
8.cc
16dd
8b-
8cc
=3
8cc
16b-
16g
4g}
=4
{8.cc
16b-
8b-
8cc
=5
*M3/4
16b-
16b-
8cc
4.dd
8cc}
=6
*M2/4
{16b-
16cc
8dd
16dd
16cc
8b-
=7
16b-
16cc
8dd
16dd
16cc
8b-
=8
*M3/4
4cc
16cc
16b-
8g
4g}
=9
*M2/4
{8g
16b-
16cc
4b-
=10
8g
16g
16f
4g}
=11
{8g
16b-
16cc
4b-
=12
8g
16g
16f
4g}
=13
{16a
16cc
16a
16cc
4dd
=14
16dd
16cc
8b-
16g
16b-
8g}
=15
{8.cc
16a
8g
16a
16cc
=16
2a}
=17
{16g
16a
8cc
8cc
8a
=18
16g
16a
8f
2g}
==
!!!AGN: Haozi, Haoyang haozi. Yangtian laodong
!!!AMT: irregular
!!!AIN: vox
!!!EED: Helmut Schaffrath
!!!EEV: 1.0
*-
